X: 16363
T: Guns Of The Magnificent Seven, The
R: reel
M: 4/4
K: Adorian
|:EAAG ABcA|EAFA GEED|EAAG ABcd|egdB BAA2:|
|:ABcd eAA2|gedc BGGB|ABcd eaaf|gedB BAA2:|
|:egdB A2|egdB GABd|eBdB Aa2g|egdB BAA2:|

